src/img/icons/icon-calendar.svg

<svg id="Capa_1" enable-background="new 0 0 511.941 511.941" height="512" viewBox="0 0 511.941 511.941" width="512" xmlns="http://www.w3.org/2000/svg"><g><path d="m421.559 30.176v-30.176h-30v30.176h-45.294v-30.176h-30v30.176h-45.294v-30.176h-30v30.176h-45.294v-30.176h-30v30.176h-45.294v-30.176h-30v30.176h-90.354v481.765h511.883v-481.765zm-331.177 30v30.177h30v-30.177h45.294v30.177h30v-30.177h45.294v30.177h30v-30.177h45.294v30.177h30v-30.177h45.294v30.177h30v-30.177h60.354v60.353h-451.883v-60.353zm-60.353 421.765v-331.412h451.883v331.412z"/><path d="m381.728 380.921-20.757-15.568-18 24 43.243 32.432 57.145-66.67-22.777-19.524z"/><path d="m135.5 210.882c-24.878 0-45.118 20.24-45.118 45.118s20.24 45.118 45.118 45.118 45.118-20.24 45.118-45.118-20.24-45.118-45.118-45.118zm0 60.236c-8.336 0-15.118-6.782-15.118-15.118s6.782-15.118 15.118-15.118 15.118 6.782 15.118 15.118-6.782 15.118-15.118 15.118z"/><path d="m255.971 210.882c-24.878 0-45.118 20.24-45.118 45.118s20.24 45.118 45.118 45.118 45.117-20.24 45.117-45.118-20.239-45.118-45.117-45.118zm0 60.236c-8.336 0-15.118-6.782-15.118-15.118s6.782-15.118 15.118-15.118 15.117 6.782 15.117 15.118-6.781 15.118-15.117 15.118z"/><path d="m135.5 331.353c-24.878 0-45.118 20.24-45.118 45.118s20.24 45.118 45.118 45.118 45.118-20.24 45.118-45.118-20.24-45.118-45.118-45.118zm0 60.235c-8.336 0-15.118-6.782-15.118-15.118s6.782-15.118 15.118-15.118 15.118 6.782 15.118 15.118-6.782 15.118-15.118 15.118z"/><path d="m255.971 331.353c-24.878 0-45.118 20.24-45.118 45.118s20.24 45.118 45.118 45.118 45.117-20.24 45.117-45.118-20.239-45.118-45.117-45.118zm0 60.235c-8.336 0-15.118-6.782-15.118-15.118s6.782-15.118 15.118-15.118 15.117 6.782 15.117 15.118-6.781 15.118-15.117 15.118z"/><path d="m383.971 301.118c24.878 0 45.117-20.24 45.117-45.118s-20.239-45.118-45.117-45.118-45.117 20.24-45.117 45.118 20.239 45.118 45.117 45.118zm0-60.236c8.336 0 15.117 6.782 15.117 15.118s-6.781 15.118-15.117 15.118-15.117-6.782-15.117-15.118 6.781-15.118 15.117-15.118z"/></g></svg>

<svg width="512" height="512" viewBox="0 0 512 512" fill="none" xmlns="http://www.w3.org/2000/svg">
<path d="M421.607 30.1795V0H391.603V30.1795H346.304V0H316.301V30.1795H271.002V0H240.998V30.1795H195.699V0H165.695V30.1795H120.396V0H90.3927V30.1795H0.0283203V512H511.97V30.1795H421.607ZM90.3917 60.1829V90.3634H120.395V60.1829H165.694V90.3634H195.698V60.1829H240.997V90.3634H271.001V60.1829H316.3V90.3634H346.303V60.1829H391.602V90.3634H421.606V60.1829H481.967V120.543H30.0318V60.1829H90.3917ZM30.0318 481.997V150.546H481.967V481.997H30.0318Z" fill="currentColor"/>
<path d="M381.771 380.965L361.012 365.395L343.01 389.398L386.258 421.834L443.409 355.156L420.63 335.63L381.771 380.965Z" fill="currentColor"/>
<path d="M135.515 210.906C110.634 210.906 90.3917 231.149 90.3917 256.03C90.3917 280.91 110.634 301.153 135.515 301.153C160.396 301.153 180.638 280.91 180.638 256.03C180.638 231.149 160.396 210.906 135.515 210.906ZM135.515 271.149C127.178 271.149 120.395 264.366 120.395 256.03C120.395 247.693 127.178 240.91 135.515 240.91C143.852 240.91 150.635 247.693 150.635 256.03C150.635 264.366 143.852 271.149 135.515 271.149Z" fill="currentColor"/>
<path d="M256 210.906C231.119 210.906 210.877 231.149 210.877 256.03C210.877 280.91 231.119 301.153 256 301.153C280.881 301.153 301.122 280.91 301.122 256.03C301.122 231.149 280.881 210.906 256 210.906ZM256 271.149C247.663 271.149 240.88 264.366 240.88 256.03C240.88 247.693 247.663 240.91 256 240.91C264.337 240.91 271.119 247.693 271.119 256.03C271.119 264.366 264.337 271.149 256 271.149Z" fill="currentColor"/>
<path d="M135.515 331.391C110.634 331.391 90.3917 351.634 90.3917 376.514C90.3917 401.395 110.634 421.638 135.515 421.638C160.396 421.638 180.638 401.395 180.638 376.514C180.638 351.634 160.396 331.391 135.515 331.391ZM135.515 391.633C127.178 391.633 120.395 384.85 120.395 376.513C120.395 368.176 127.178 361.394 135.515 361.394C143.852 361.394 150.635 368.176 150.635 376.513C150.635 384.85 143.852 391.633 135.515 391.633Z" fill="currentColor"/>
<path d="M256 331.391C231.119 331.391 210.877 351.634 210.877 376.514C210.877 401.395 231.119 421.638 256 421.638C280.881 421.638 301.122 401.395 301.122 376.514C301.122 351.634 280.881 331.391 256 331.391ZM256 391.633C247.663 391.633 240.88 384.85 240.88 376.513C240.88 368.176 247.663 361.394 256 361.394C264.337 361.394 271.119 368.176 271.119 376.513C271.119 384.85 264.337 391.633 256 391.633Z" fill="currentColor"/>
<path d="M384.015 301.153C408.895 301.153 429.137 280.91 429.137 256.03C429.137 231.149 408.895 210.906 384.015 210.906C359.134 210.906 338.892 231.149 338.892 256.03C338.892 280.91 359.134 301.153 384.015 301.153ZM384.015 240.91C392.352 240.91 399.133 247.693 399.133 256.03C399.133 264.366 392.352 271.149 384.015 271.149C375.678 271.149 368.896 264.366 368.896 256.03C368.896 247.693 375.678 240.91 384.015 240.91Z" fill="currentColor"/>
</svg>
